!! 00000] TT[
!!!OTL: Da lian cheng
!!!ARE: Asia, China,ÿNeimeng
!! Ethnic Group: Han
!! MM, ZHONGGUO MINGE XUAN S.195
!!!SCT: C1310
!!!YEM: Copyright 1995, estate of Helmut Schaffrath.
**kern
*ICvox
*Ivox
*M2/4
*k[]
*C:
{8.e
16e
8.e
16gg
=1
8ee
8dd
4cc
=2
4ee
8dd
8cc
=3
2e}
=4
{8.e
16e
8.e
16gg
=5
8.ee
16gg
8ee
8dd
=6
4ee
8dd
8cc
=7
2e}
=8
{8cc
8a
4cc
=9
8e
8g
4e}
=10
{8cc
8cc
8cc
8cc
=11
8e
8g
4e}
=12
{8.cc
16dd
8gg
8ee
=13
2dd}
=14
{4e
4gg
=15
8ee
8dd
4cc
=16
8dd
16dd
16dd
8cc
8a
=17
8g
8a
8cc
8e
=18
2g}
==
!!!AGN: Xiaodiao. Bainian
!! Pinyin-Text der ersten Strophe vorhanden!
!!!ONB: ESAC (Essen Associative Code) Database: CHINA
!!!AMT: simple duple
!!!AIN: vox
!!!EED: Helmut Schaffrath
!!!EEV: 1.0
*-
